!!!COM: Robert Schumann
!!!CNT: Deutsch
!!!TXO: Deutsch
!!!OTL: "Reich' mir die Hand, o Wolke"
!!!LYR: Elizabeth Kulmann
!!!OPR: Sieben Lieder
!!!OPS: Op. 104
!!!ONM: No. 5
!!!ENC: Leigh VanHandel
!!!YOR: Schumann Lieder - Max Friedlaender, ed.,
!!!YOR: New York: C. F. Peters, Vol. 3
!!!ODT: 1851/
**kern	**silbe
*staff1	*
*clefG2	*
*k[b-e-]	*
*met(C)	*
*M4/4	*
*MM[Mit Affect]	*
=1	=1
2r	.
{[2ee-	{Reich'
=2	=2
4ee-]	|
8.dd	mir
16cc	die
4dd	Hand,
4g	o
=3	=3
4cc	Wol-
4cc}	ke,}
4r	.
{[4ee-	{heb'
=4	=4
4ee-]	|
8e-	mich
8e-	zu
4b-	dir
4f#	em-
=5	=5
2g}	-por!}
{2g	{Dort
=6	=6
4.b-	ste-
8b-	-hen
4b-	mei-
4a-	-ne
=7	=7
4dd-	Bru2-
4dd-}	-der}
4r	.
{4cc	{am
=8	=8
4.ff	off'-
8dd-	-nen
4cc	Him-
4b-	-mels-
=9	=9
4.cc}	-tor.}
{8cc	{Sie
[2cc	sind's,
=10	=10
4cc]	|
4cc#	ob-
4.dd	-gleich
8a	im
=11	=11
4cc	Le-
4b-}	-ben}
4r	.
{4b-	{ich
=12	=12
4.a	nie-
8a	-mals
4.g	sie
8g	ge-
=13	=13
2f#}	-seh'n,}
4r	.
{4g	{ich
=14	=14
4.cc	seh'
8g	in
4g	ih-
4a	-rer
=15	=15
4bn	Mit-
4g}	-te}
8r	.
{8g	{ja
8b	un-
8dd	-sern
=16	=16
2.cc	Va-
4a	-ter
=17	=17
4bn}	steh'n!}
4r	.
4r	.
{4b-	{Sie
=18	=18
4.a-	schau'n
8a-	auf
4cc	mich
4b-	her-
=19	=19
4a-	-nie-
4g}	-der,}
4r	.
{4g	{sie
=20	=20
4.f	win-
8f	-ken
4.f#	mir
8f#	zu
=21	=21
2g}	sich.}
4r	.
{4ee-	{O,
=22	=22
4ee-	reich'
8dd	|
8cc	die
4dd	Hand
4g	mir,
=23	=23
4cc	Wol-
4cc}	-ke,}
4r	.
{[4ee-	{schnell,
=24	=24
4ee-]	|
8e-	schnell
8e-	er-
4.b-	-he-
8f#	-be
=25	=25
2g}	mich!}
2r	.
==	==
*-	*-
